svg/600/outlined/qr_code_2_add-fill.svg

<svg xmlns="http://www.w3.org/2000/svg" width="48" height="48" viewBox="0 -960 960 960"><path d="M170.607-390.391V-480h90.175v89.609h-90.175ZM80.998-480v-89.609h89.609V-480H80.998ZM480-789.393v-89.609h89.609v89.609H480ZM143.999-673.175H287.39v-142.826H143.999v142.826Zm-63.001 63.566v-269.393h269.393v269.393H80.998Zm63.001 465.61H287.39V-287.39H143.999v143.391ZM80.998-80.998v-269.393h269.393v269.393H80.998Zm592.177-592.177h142.826v-142.826H673.175v142.826Zm-63.566 63.566v-269.393h269.393v269.393H609.609ZM350.391-390.391V-480h-89.609v-89.609H440v179.218h-89.609Zm40-219.218v-179.784H480v93.001h89.609v86.783H390.391ZM187.39-716.001v-57.174h56.609v57.174H187.39Zm0 528.611v-56.609h56.609v56.609H187.39Zm528.611-528.611v-57.174h57.174v57.174h-57.174ZM661.305-80.998v-138.479H522.826v-79.783h138.479v-138.479h79.218v138.479h138.479v79.783H740.523v138.479h-79.218Z"/></svg>

<svg xmlns="http://www.w3.org/2000/svg" width="48" height="48" viewBox="0 -960 960 960"><path d="M170.61-390.39V-480h90.17v89.61h-90.17ZM81-480v-89.61h89.61V-480H81Zm399-309.39V-879h89.61v89.61H480ZM144-673.18h143.39V-816H144v142.82Zm-63 63.57V-879h269.39v269.39H81ZM144-144h143.39v-143.39H144V-144ZM81-81v-269.39h269.39V-81H81Zm592.18-592.18H816V-816H673.18v142.82Zm-63.57 63.57V-879H879v269.39H609.61ZM350.39-390.39V-480h-89.61v-89.61H440v179.22h-89.61Zm40-219.22v-179.78H480v93h89.61v86.78H390.39ZM187.39-716v-57.18H244V-716h-56.61Zm0 528.61V-244H244v56.61h-56.61ZM716-716v-57.18h57.18V-716H716ZM661.3-81v-138.48H522.83v-79.78H661.3v-138.48h79.22v138.48H879v79.78H740.52V-81H661.3Z"/></svg>
